X:1
T:Grateful Submission, CMD
T:Grateful Submission, CMD
T:Abraham Bowman Kolb, 1902
T:Public Domain Courtesy of the Cyber Hymnal™
C:Abraham Bowman Kolb, 1902
Z:Public Domain
Z:Courtesy of the Cyber Hymnal™
%%score ( 1 2 ) ( 3 4 )
L:1/8
Q:1/4=140
M:3/4
K:F
V:1 treble 
V:2 treble 
V:3 bass 
V:4 bass 
V:1
 C2 | [FA]4 [FB]2 | [FA]4 [Fc]2 | [Ec]4 [EG]2 | [FA]4 [Fc]2 | [Fc]4 [_EF]2 | [DF]4 [DG]2 | %7
 ([C-F]6 | [CE]4) (FA) | [Fc]4 [Fd]2 x6 | [Fc]4 [FA]2 | [Af]4 [Bf]2 | [Af]4 [Fd]2 | [Fc]4 F2 | %14
 [FA]4 [CG]2 | [CF]6- | [CF]6 | [Fc]3 [Fc] [Fc]2 | [Ec]4 [Ec]2 | [_Ec]4 [EF]2 | [DF]4 [Fd]2 | %21
 [Fc]4 [FA]2 | c2 B2 [FA]2 | [EG]6- | [EG]4 [EG]2 | [FA]4 [FA]2 | [EB]4 [EB]2 | [Fc]4 [Fc]2 | %28
 !fermata![Fd]4 [Fd]2 | (c2 F2) [FB]2 | [FA]4 [CG]2 | [CF]6- | [CF]4 |] %33
V:2
 C2 | x6 | x6 | x6 | x6 | x6 | x6 | x6 | x4 F2 | x12 | x6 | x6 | x6 | x4 F2 | x6 | x6 | x6 | x6 | %18
 x6 | x6 | x6 | x6 | G4 x2 | x6 | x6 | x6 | x6 | x6 | x6 | F4 x2 | x6 | x6 | x4 |] %33
V:3
 [F,A,]2 | [F,C]4 [F,D]2 | [F,C]4 [F,A,]2 | [C,G,]4 [C,C]2 | [F,C]4 [F,A,]2 | [A,C]4 [A,C]2 | %6
 B,4 [B,,B,]2 | ([C,-A,]6 | [C,G,]4) (A,C) | [F,A,]4 [F,B,]2 [F,A,]4 [F,C]2 | [F,C]4 [F,D]2 | %11
 [F,C]4 B,2 | [A,C]4 [B,D]2 | C4 [C,B,]2 | [F,A,]6- | [F,A,]6 | [F,A,]3 [F,A,] [F,A,]2 | %17
 [C,G,]4 [C,B,]2 | [F,A,]4 [F,A,]2 | [B,,B,]4 [B,,B,]2 | [F,A,]4 [F,C]2 | [E,C]4 [F,C]2 | [C,C]6- | %23
 [C,C]4 [C,C]2 | [F,C]4 [F,C]2 | [G,C]4 [G,C]2 | [A,C]4 [A,C]2 | !fermata!B,4 [B,,B,]2 | %28
 A,4 [B,,D]2 | [C,C]4 [C,B,]2 | [F,,A,]6- | [F,,A,]4 x2 | x4 |] %33
V:4
 x2 | x6 | x6 | x6 | x6 | x6 | B,4 x2 | x6 | x4 F,2 | x12 | x6 | x4 B,2 | x6 | C4 x2 | x6 | x6 | %16
 x6 | x6 | x6 | x6 | x6 | x6 | x6 | x6 | x6 | x6 | x6 | B,4 x2 | (C,2 D,2) x2 | x6 | x6 | x6 | %32
 x4 |] %33

